!!!SOCIAL_FUNCTION:	songs of the tea dance
!!!PDT:	1922
!!!OTL: No_46_Tea_Dance_Song_(a).krn
!!!REG: Southwest
!!!LANG: Non-Tone
!!!LING_GROUP: Uto-Aztecan
**kern	**kern
*staff2	*staff1
*clefF4	*clefF4
*k[f#c#g#d#]	*k[f#c#g#d#]
*M2/4	*M2/4
4r	8f#\L
.	8e\J
=1	=1
12GG#^/	4f#\
12r	.
12GG#/	.
12GG#^/	8f#\L
12r	.
.	8e\J
12GG#/	.
=2	=2
2r	4B\
.	8f#\L
.	8e\J
=3	=3
2r	4f#\
.	8f#\L
.	8e\J
=4	=4
2r	4B\
.	8B\L
.	8G#\J
=5!|:	=5!|:
2r	4B\
.	8B\L
.	8G#\J
=6	=6
2r	8.F#\L
.	16B\Jk
.	8B\L
.	8G#\J
=7	=7
2r	4B\
.	8B\L
.	8G#\J
=8	=8
2r	8.F#\L
.	16G#\Jk
.	[4F#\
=9	=9
2r	2F#\]
=10	=10
2r	4r
.	4F#\
=11	=11
2r	2F#\
=12	=12
2r	8.E\L
.	16F#\Jk
.	4E\
=13	=13
2r	8.F#\L
.	16G#\Jk
.	4E\
=14	=14
2r	4BB/
.	8BB/L
.	8BB/J
=15	=15
2r	8BB/L
.	8BB/J
.	8BB/L
.	8BB/J
=16	=16
*M3/4	*M3/4
2.r	4.BB/
.	8B\
.	8B\L
.	8G#\J
==:|!	==:|!
*-	*-
